packages/theme-chalk/src/icons/case.svg

<svg xmlns="http://www.w3.org/2000/svg" width="24" height="24" viewBox="0 0 24 24">
    <g fill-rule="evenodd">
        <path fill-rule="nonzero" d="M20 6h-4V4c0-1.11-.89-2-2-2h-4c-1.11 0-2 .89-2 2v2H4c-1.11 0-1.99.89-1.99 2L2 19c0 1.11.89 2 2 2h16c1.11 0 2-.89 2-2V8c0-1.11-.89-2-2-2zm-6 0h-4V4h4v2z"/>
    </g>
</svg>

<svg width="20px" height="19px" viewBox="0 0 20 19" version="1.1" xmlns="http://www.w3.org/2000/svg" xmlns:xlink="http://www.w3.org/1999/xlink">
    <g id="Symbols" stroke="none" stroke-width="1" fill-rule="evenodd">
        <g id="icon/active/clients" transform="translate(-2.000000, -2.000000)">
            <path d="M20,6 L16,6 L16,4 C16,2.89 15.11,2 14,2 L10,2 C8.89,2 8,2.89 8,4 L8,6 L4,6 C2.89,6 2.01,6.89 2.01,8 L2,19 C2,20.11 2.89,21 4,21 L20,21 C21.11,21 22,20.11 22,19 L22,8 C22,6.89 21.11,6 20,6 Z M14,6 L10,6 L10,4 L14,4 L14,6 Z" fill-rule="nonzero"></path>
        </g>
    </g>
</svg>
